frontend/icons/minus.svg

<svg xmlns="http://www.w3.org/2000/svg" viewBox="0 0 14 14"><path d="M2.73 6.023a1.06 1.06 0 0 0-.707.536 1.05 1.05 0 0 0-.018.849c.066.149.219.324.373.427.272.182-.044.171 4.704.163l4.223-.006.132-.054c.259-.104.483-.329.582-.582.073-.189.074-.522.001-.71a1.03 1.03 0 0 0-.358-.453c-.275-.202.155-.184-4.592-.188-2.441-.002-4.266.006-4.34.018"/></svg>

<svg xmlns="http://www.w3.org/2000/svg" version="1.1" viewBox="0 0 14 14" role="img">
  <path d="M2.730 6.023 C 2.454 6.069,2.147 6.301,2.023 6.559 C 1.898 6.817,1.891 7.154,2.005 7.408 C 2.071 7.557,2.224 7.732,2.378 7.835 C 2.650 8.017,2.334 8.006,7.082 7.998 L 11.305 7.992 11.437 7.938 C 11.696 7.834,11.920 7.609,12.019 7.356 C 12.092 7.167,12.093 6.834,12.020 6.646 C 11.951 6.470,11.831 6.318,11.662 6.193 C 11.387 5.991,11.817 6.009,7.070 6.005 C 4.629 6.003,2.804 6.011,2.730 6.023 "/>
</svg>
